**kern	**kern	**dynam
*part1	*part1	*part1
*staff2	*staff1	*
*I"Piano	*	*
*clefF4	*clefG2	*
*k[b-e-a-d-]	*k[b-e-a-d-]	*
=1	=1	=1
*^	*	*
8rGG	4.FF	(4c 4f 4a-	.
(8FL	.	.	.
8CJ)	.	8f 8a- 8cc	.
=	=	=	=
*	*	*^	*
8rGG	4.FF	8.d-L 8.b-	4.en	.
(8GL	.	.	.	.
.	.	16cK 16a-	.	.
8CJ)	.	8B-J 8g	.	.
*	*	*v	*v	*
=	=	=	=
8rGG	4.FF	4c 4f 4a-	.
(8FL	.	.	.
8CJ)	.	8f 8a- 8cc	.
=	=	=	=
*	*	*^	*
8rGG	4.FF	8.d-L 8.b-	4.en	.
(8GL	.	.	.	.
.	.	16cK 16a-	.	.
8CJ)	.	8B-J 8g	.	.
*	*	*v	*v	*
=	=	=	=
8rGG	4.FF	4c 4f 4a-	.
(8FL	.	.	.
8CJ)	.	8A- 8c 8f	<
=	=	=	=
8rGG	4.BBB-	4c 4f 4a-	.
(8FL	.	.	.
8BB-J)	.	8dn 8f 8a- 8cc	.
=	=	=	=
*	*	*^	*
8rGG	4.EE-	4.e-^^) 4.ee-	(4g	.
(8E-L	.	.	.	.
8BB-J)	.	.	8b-)	[
=	=	=	=	=
8rGG	4.EE-	4.e-^^ 4.ee-	(4g	.
(8E-L	.	.	.	.
8BB-J)	.	.	8b-)	.
*v	*v	*	*	*
*	*v	*v	*
=	=	=
*-	*-	*-
!!!system-decoration: {(s1,s2)}
